UI/POI/SVG/camping_outline_24px.svg

<svg xmlns="http://www.w3.org/2000/svg" width="24" height="24" viewBox="0 0 24 24"><rect width="24" height="24" style="fill:none"/><path d="M22,22H2V20H22ZM13,6l2-4H13L12,4,11,2H9l2,4L5,18H7L12,8l5,10h2Zm1,10-2-4v6h2Z"/></svg>

<svg width="24" height="24" viewBox="0 0 24 24" fill="none" xmlns="http://www.w3.org/2000/svg">
<path d="M22 22H2V20H22V22ZM13 6L15 2H13L12 4L11 2H9L11 6L5 18H7L12 8L17 18H19L13 6ZM14 16L12 12V18H14V16Z" fill="#0F1621"/>
</svg>
